X:1
T:James Gibb editions
T:En natus est Emmanuel - Praetorius
T:#
%%score [ 1 2 3 4 ]
L:1/8
Q:1/4=96
M:4/4
K:F
V:1 treble nm="S"
V:2 treble nm="A"
V:3 treble-8 nm="T"
V:4 bass nm="B"
V:1
"^En natus est Emmanuel""^Michael Praetorius\n(1571-1621)" F4 cccc | d2 B2 c4 | f4 d4 | c8 | %4
w: En na- tus est Em-|ma- nu- el,|Do- mi-|nus,|
 fedc dd c2 | A4 B4 |[M:4/4] c8 | F2 G2 (A>B c)A | BGFE (F>G A)A | B2 G2 F2 E2 | F8 || z8 | z8 | %13
w: quem prae- di- xit Ga- bri- el,|Do- mi-|­~nus,|Do- mi- nus * * Sal-|va- tor no- ster est, * * Sal-|va- tor no- ster|est.|||
 c6 =B2 | c8 | z8 | c4 d4 | G8 | F2 G2 (A>B c)A | BGFE (F>G A)A | B2 G2 F2 E2 | F8 || z2 F2 cccc | %23
w: Do- mi-|nus,||Do- mi-|nus.|Do- mi- nus * * Sal-|va- tor no- ster est, * * Sal-|va- tor no- ster|est.|Haec lux est or- ta|
 d2 B2 c4 | f4 d4 | c8 | fedc dd c2 | A4 B4 | c8 | F2 G2 (A>B c)A | BGFE (F>G A)[Q:1/4=95]A | %31
w: ho- di- e,|Do- mi-|nus,|Ex Ma- ri- a Vir- gi- ne,|Do- mi-|nus.|Do- mi- nus * * Sal-|va- tor no- ster est, * * Sal-|
[Q:1/4=92] B2[Q:1/4=88] G2[Q:1/4=85] F2[Q:1/4=81] E2 |[Q:1/4=80] F8 |] %33
w: va- tor no- ster|est.|
V:2
 z2 F2 FFEF | B,2 D2 (CD E2) | A4 G4 | G8 | AGFE FG C2 | F6 F2 |[M:4/4] E8 | D2 E2 F3 F | %8
w: En na- tus est Em-|ma- nu- el, * *|Do- mi-|nus,|quem prae- di- xit Ga- bri- el,|Do- mi-|­~nus,|Do- mi- nus Sal-|
 FE (DC/B,/ C)CCF | F2 E2 (DC/B,/ C)C | C8 || z8 | z8 | A4 G4 | E8 | z8 | F6 D2 | E8 | D2 E2 F3 F | %19
w: va- tor no\- * * * ster est, Sal-|va- tor no\- * * * ster|est.|||Do- mi-|nus,||Do- mi-|nus.|Do- mi- nus Sal-|
 FE (DC/B,/ C)CCF | F2 E2 (DC/B,/ C)C | C8 || z2 C2 CGFE | G2 G2 G4 | F4 F4 | F8 | AGFE GG E2 | %27
w: va- tor no\- * * * ster est, Sal-|va- tor no\- * * * ster|est.|Haec lux est or- ta|ho- di- e,|Do- mi-|nus,|Ex Ma- ri- a Vir- gi- ne,|
 F6 F2 | E8 | D2 E2 F3 F | FE (DC/B,/ C)CCF | F2 E2 (DC/B,/ C)C | C8 |] %33
w: Do- mi-|nus.|Do- mi- nus Sal-|va- tor no\- * * * ster est, Sal-|va- tor no\- * * * ster|est.|
V:3
 z8 | z8 | c6 =B2 | (c3 d e4) | z8 | (c4 d2) d2 |[M:4/4][K:treble-8] (G4 c4) | A2 B2 (c>B A)c | %8
w: ||Do- mi-|nus, * *||Do\- * mi-|nus, *|Do- mi- nus * * Sal-|
 dcAG (A>B c)c | dd (c>B AG/F/ G)G | A8 || F4 cccc | d2 B2 c4 | f4 d4 | c8 | fedc dd c2 | A4 B4 | %17
w: va- tor no- ster est, * * Sal-|va- tor no\- * * * * * ster|est.|Hic ja- cet in prae-|se- pi- o,|Do- mi-|nus,|pu- er ad- mi- ra- bi- lis,|Do- mi-|
 c8 | A2 B2 (c>B A)c | dcAG (A>B c)c | dd (c>B AG/F/ G)G | A8 || z2 A2 AGAc | B2 d2 c4 | A4 B4 | %25
w: nus.|Do- mi- nus * * Sal-|va- tor no- ster est, * * Sal-|va- tor no\- * * * * * ster|est.|Haec lux est or- ta|ho- di- e,|Do- mi-|
 A8 | AcAc =BB c2 | c4 d4 | (G4 c4) | A2 B2 (c>B A)c | dcAG (A>B c)c | dd (c>B AG/F/ G)G | A8 |] %33
w: nus,|Ex Ma- ri- a Vir- gi- ne,|Do- mi-|nus. *|Do- mi- nus * * Sal-|va- tor no- ster est, * * Sal-|va- tor no\- * * * * * ster|est.|
V:4
 z8 | z8 | F,4 G,4 | C,8 | z8 | (F,3 E, D,2) D,2 |[M:4/4] C,8 | D,2 G,2 F,3 F, | B,,C,D,G, F,3 F, | %9
w: ||Do- mi-|nus,||Do\- * * mi-|nus,|Do- mi- nus Sal-|va- tor no- ster est, Sal-|
 B,,2 C,2 D,2 C,2 | F,8 || z2 F,2 F,F,E,F, | B,,2 D,2 (C,D, E,2) | F,4 G,4 | C,6 CB, | %15
w: va- tor no- ster|est.|Hic ja- cet in prae-|se- pi- o, * *|Do- mi-|nus, pu- er|
 (A,G,F,)E, F,G, A,2 | (F,3 E, D,2) D,2 | C,8 | D,2 G,2 F,3 F, | B,,C,D,G, F,3 F, | %20
w: ad\- * * mi- ra- bi- lis,|Do\- * * mi-|nus.|Do- mi- nus Sal-|va- tor no- ster est, Sal-|
 B,,2 C,2 D,2 C,2 | F,8 || z2 F,2 F,E,F,A, | G,2 G,2 C,4 | D,4 B,,4 | F,8 | D,E,F,A, G,G, C,2 | %27
w: va- tor no- ster|est.|Haec lux est or- ta|ho- di- e,|Do- mi-|nus,|Ex Ma- ri- a Vir- gi- ne,|
 (F,3 E, D,2) D,2 | C,8 | D,2 G,2 F,3 F, | B,,C,D,G, F,3 F, | B,,2 C,2 D,2 C,2 | F,8 |] %33
w: Do\- * * mi-|­~nus.|Do- mi- nus Sal-|va- tor no- ster est, Sal-|va- tor no- ster|est.|

